assets/icons/functional/commerce/gift.svg

<svg width="32" height="32" viewBox="0 0 32 32" fill="none" xmlns="http://www.w3.org/2000/svg"><g id="Icon-Gift"><g clip-path="url(#clip0_12_6208)"><g id="size=md (32px)"><g id="Gift"><path id="Vector" d="M27 10H5C4.44772 10 4 10.4477 4 11V15C4 15.5523 4.44772 16 5 16H27C27.5523 16 28 15.5523 28 15V11C28 10.4477 27.5523 10 27 10Z" stroke="#101828" stroke-width="2" stroke-linecap="round" stroke-linejoin="round"/><path id="Vector_2" d="M26 16V25C26 25.2652 25.8946 25.5196 25.7071 25.7071C25.5196 25.8946 25.2652 26 25 26H7C6.73478 26 6.48043 25.8946 6.29289 25.7071C6.10536 25.5196 6 25.2652 6 25V16" stroke="#101828" stroke-width="2" stroke-linecap="round" stroke-linejoin="round"/><path id="Vector_3" d="M16 10V26" stroke="#101828" stroke-width="2" stroke-linecap="round" stroke-linejoin="round"/><path id="Vector_4" d="M21.6625 8.58748C20.2375 9.99998 16 9.99998 16 9.99998C16 9.99998 16 5.76248 17.4125 4.33748C17.9761 3.77389 18.7405 3.45728 19.5375 3.45728C20.3345 3.45728 21.0989 3.77389 21.6625 4.33748C22.2261 4.90106 22.5427 5.66545 22.5427 6.46248C22.5427 7.25951 22.2261 8.02389 21.6625 8.58748V8.58748Z" stroke="#101828" stroke-width="2" stroke-linecap="round" stroke-linejoin="round"/><path id="Vector_5" d="M10.3372 8.58748C11.7622 9.99998 15.9997 9.99998 15.9997 9.99998C15.9997 9.99998 15.9997 5.76248 14.5872 4.33748C14.0236 3.77389 13.2593 3.45728 12.4622 3.45728C11.6652 3.45728 10.9008 3.77389 10.3372 4.33748C9.77365 4.90106 9.45703 5.66545 9.45703 6.46248C9.45703 7.25951 9.77365 8.02389 10.3372 8.58748V8.58748Z" stroke="#101828" stroke-width="2" stroke-linecap="round" stroke-linejoin="round"/></g></g></g></g><defs><clipPath id="clip0_12_6208"><rect width="32" height="32" rx="5" fill="white"/></clipPath></defs></svg>

<svg xmlns="http://www.w3.org/2000/svg" width="32" height="32" fill="none"><g clip-path="url(#a)"><path stroke="#101828" stroke-linecap="round" stroke-linejoin="round" stroke-width="2" d="M27 10H5a1 1 0 0 0-1 1v4a1 1 0 0 0 1 1h22a1 1 0 0 0 1-1v-4a1 1 0 0 0-1-1Zm-1 6v9a1 1 0 0 1-1 1H7a1 1 0 0 1-1-1v-9m10-6v16m5.663-17.412C20.238 10 16 10 16 10s0-4.237 1.413-5.662a3.005 3.005 0 0 1 4.25 4.25v0Zm-11.325 0C11.763 10 16 10 16 10s0-4.237-1.412-5.662a3.005 3.005 0 0 0-4.25 4.25v0Z"/></g><defs><clipPath id="a"><rect width="32" height="32" fill="#fff" rx="5"/></clipPath></defs></svg>
